X:115
T: Duikou shange
N: C1609
O: China, Anhui, Guichi
S: III, 581]
R: Shange. Nann qing]
M: 2/4
L: 1/16
K: E
cecBG2GB | c2BGF4 | B2BGG2B2 | B2GFE4 | E6z2
E2EFG2GF | GFE2F2EF | B2BGB2F2 | B2GFE4 | E6z2
B2BGE3F | B2BGB2F2 | F2GFE4 | E8

